X:1
T:Gesammelte Motetten
T:Kommt her und schauet die Werke des Herrn
T:Johann Heinrich Rolle
T:Kommt her und schauet die Werke des Herrn
T:Psalm 46,9-11
T:CPDL - Creative Commons Attribution Non Commercial 3.0
T:CPDL - Creative Commons Attribution Non Commercial 3.0
T:CPDL - Creative Commons Attribution Non Commercial 3.0
T:CPDL - Creative Commons Attribution Non Commercial 3.0
T:CPDL - Creative Commons Attribution Non Commercial 3.0
T:CPDL - Creative Commons Attribution Non Commercial 3.0
T:CPDL - Creative Commons Attribution Non Commercial 3.0
T:CPDL - Creative Commons Attribution Non Commercial 3.0
T:CPDL - Creative Commons Attribution Non Commercial 3.0
T:CPDL - Creative Commons Attribution Non Commercial 3.0
C:Johann Heinrich Rolle
Z:CPDL - Creative Commons Attribution Non Commercial 3.0
%%score [ 1 2 3 4 ]
L:1/8
Q:1/4=76
M:4/4
K:E
V:1 treble nm="Sopran"
V:2 treble nm="Alt"
V:3 treble-8 nm="Tenor"
V:4 bass nm="Bass"
V:1
"^Moderato" B | (B2 c)B A/>G/A z A | A2 BA G2 z e | e2 Fe e2 Ge | e2 ee dddG | c/>B/c z c B2 BB | %6
w: Kommt|her _ und schau- * et die|Wer- ke des Herrn, die|Wer- ke, die Wer- ke, die|Wer- ke des Herrn, kommt her und|schau- * et die Wer- ke, die|
 AG/A/ BA G2 z2 ||[Q:1/4=110]"^Allegro" BBBB B2 B,2 | z BBB BBEG | F2 z B B2 B,B | c2 z2 c2 Fc | %11
w: Wer- * * ke des Herrn;|der den Krie- gen steu- ert|in al- ler Welt, in al- ler|Welt, der Bo- gen zer-|bricht, Spie- ße zer-|
 d2 z B f2 ff | f2 ff f2 ff | ed z c g2 gg | g2 gg g2 gg | ec/d/ ec de fe/d/ | ec/d/ ec de fe/d/ | %17
w: schlägt und Wa- gen mit|Feu- er, mit Feu- er ver-|bren- net, und Wa- gen mit|Feu- er, mit Feu- er ver-|bren- * * * * * * * * *||
 ec/d/ ed cd ed/c/ | dB/c/ dB cd ed/c/ | d2 Be dcB=A | GABe dcBA | .G.F z2 z2 | %22
w: ||* net, der Wa- * gen mit|Feu- * er, mit Feu- * er ver-|bren- net.|
 z"^Solo"[Q:1/4=44]"^Largo" B | B/^A/ A2 G G/F/ F2 F/F/ | GG/G/ G^A B2 z |"^Tutti" ^A/A/ | %26
w: Seid|stil- * le, seid stil- * le und er-|ken- net, dass ich Gott bin,|und er-|
 BB/B/ Bc dc e2 | g2 ^A2 !fermata!B2 z d | (d2 e)d c/>B/c z c | c2 dc ^B2 z c | f2 fd e2 z2 | %31
w: ken- net, dass ich Gott bin, dass ich,|ich Gott bin. Kommt|her _ und schau- * et die|Wer- ke des Herrn, die|Wer- ke des Herrn!|
[Q:1/4=110]"^Allegro" eedc ^B^A G2- | Gedc ^BGce | d2 z c c2 Cc | d2 z2 d2 Gd | ^e2 z c f2 ff | %36
w: Der den Krie- gen steu- * ert|_ in al- ler Welt, in al- ler|Welt, der Bo- gen zer-|bricht, Spie- ße zer-|schlägt und Wa- gen mit|
 f2 ff f2 ff | dB z B B2 B,B | c2 z2 c2 Fc | d2 z B e2 ee | e2 ee e2 ee | cB A2 cd ed/c/ | %42
w: Feu- er, mit Feu- er ver-|bren- net, der Bo- gen zer-|bricht, Spie- ße zer-|schlägt und Wa- gen mit|Feu- er, mit Feu- er ver-|bren- * * * * * * *|
 dc B2 de fe/d/ | e2 fe d2 ed | cBAG .G.F z |"^Solo"[Q:1/4=44]"^Largo" B | %46
w: ||* * net, ver- bren- net.|Seid|
 B/^A/ A2 G G/F/ F2 F/F/ | GG/G/ G^A B2 z"^Tutti"[Q:1/4=110]"^Allegro" B | B2 B,B c2 z2 | %49
w: stil- * le, seid stil- * le und er-|ken- net, dass ich Gott bin, der|Bo- gen zer- bricht,|
 c2 Fc d2 z |"^Solo"[Q:1/4=44]"^Largo" z | z8 | z4 z2 z"^Tutti"[Q:1/4=110]"^Allegro" e | %53
w: Spie- ße zer- schlägt,|||der|
 e2 ee e2 ee | e2 ee cA z c | f2 ff f2 ff | f2 ff dB z |"^Solo"[Q:1/4=44]"^Largo" e | %58
w: Wa- gen mit Feu- er, mit|Feu- er ver- bren- net, der|Wa- gen mit Feu- er, mit|Feu- er ver- bren- net.|Seid|
 B/A/ A2 B A/G/ G2 G/G/ | AA/A/ AB c2 z |"^Tutti"!f! B/B/ | cc/c/ cd e2 G2 | c2 D2 E2 B2 | %63
w: stil- * le, seid stil- * le und er-|ken- net, dass ich Gott bin,|und er-|ken- net, dass ich Gott bin, dass|ich Gott bin, dass|
 c2 d2 e4 |] %64
w: ich Gott bin.|
V:2
 G | (G2 A)G F/>E/F z F | F2 FF E2 z E | F2 FF G2 GG | A A2 A A G/>F/ GG | %5
w: ||||Wer- ke des Herrn, kommt * her und|
 GF/>^E/ FF/F/ F =E/>D/ EE/E/ | E2 DD E2 z2 || GGFE DC B,2 | z GFE DDEE | D2 z B B2 B,F | %10
w: schau- et die Wer- ke des Herrn, die _ Wer- ke, die|||||
 G2 z2 c2 FF | B2 z F F2 FF | F2 FF F2 FG | GG z G G2 GG | G2 GG G2 GG | G2 G z z2 z G | %16
w: |||||bren- net, der|
 G2 GG G2 z2 | G2 ^AB F2 z2 | F2 FF F2 z F | F2 z G FEDF | EFGG FEDF | .E.D z2 z2 | z F | %23
w: Bo- gen zer- bricht,|Spie- ße zer- schlägt,|Bo- gen zer- bricht, zer-|bricht, * * * * *||||
 E E2 E E E2 D/D/ | EE/E/ EE D2 z | E/E/ | FF/F/ FF FF E2 | E2 C2 !fermata!D2 z B | %28
w: |||||
 (B2 c)B ^A/>G/A z A | ^A2 AA G2 z G | =A2 GG G2 z2 | GGGG G2 G2 | z GGG GGGG | G2 z c c2 CG | %34
w: ||||||
 A2 z2 G2 GG | G2 z G FGAG | FGAG F2 FF | FD z B B2 B,F | G2 z2 F2 FF | F2 z F EFGF | EFGF EFGE | %41
w: ||||||Feu- * er, mit Feu- * er ver-|
 E2 E2 z2 z F | F2 FF G2 z G | G2 FF F2 EB | AGFE .E.D z | F | E E2 E E E2 D/D/ | EE/E/ EE D2 z B | %48
w: bren- net, der|Bo- gen zer- bricht und|Wa- gen mit Feu- er, mit|Feu- * er ver- bren- net.||||
 B2 B,F G2 z2 | F2 FF F2 z | E | E/D/ D2 C C/B,/ B,2 B,/B,/ | CC/C/ CD E2 z E | EFGF EFGF | %54
w: ||Seid|stil- * le, seid stil- * le und er-|ken- net dass ich Gott bin, der|Wa- * gen mit Feu- * er, mit|
 EFGE EC z F | FGAG FGAG | FGAF FD z | E | E E2 D D/E/ E2 E/E/ | EE/E/ AG A2 z |!f! B/B/ | %61
w: |||||||
 AA/A/ AA G2 G2 | A2 F2 E2 E2 | E2 F2 G4 |] %64
w: |||
V:3
 e | e3 e cc z c | B2 BB B2 z B | c2 cc B2 BB | c2 cc B B/>A/ BB | Ac/>B/ cB/A/ BB BB/B/ | %6
w: Kommt|her und schau- et die|Wer- ke des Herrn, die|Wer- ke, die Wer- ke, die|Wer- ke des Herrn, kommt * her und|schau- et die Wer- ke des Herrn, die Wer- ke, die|
 c2 BB B2 z2 || eedc B2 BA | Gedc BBBB | B2 z B B2 Bd | e2 z2 f2 ff | f2 z d cB^AB | cB^AB cBcd | %13
w: Wer- ke des Herrn;|der den Krie- gen steu- ert in|al- ler Welt, in al- ler, al- ler|Welt, der Bo- gen zer-|bricht, Spie- ße zer-|schlägt, und Wa- * gen mit|Feu- * er, mit Feu- * er ver-|
 c^B z e dcBc | dc^Bc d2 G z | z2 z g g2 GG | c2 z2 g2 GG | c2 z2 f2 FF | B2 z2 f2 FF | %19
w: bren- net, und Wa- * gen mit|Feu- * er ver- bren- net,|der Bo- gen zer-|bricht, Spie- ße zer-|schlägt, Bo- gen zer-|bricht, Spie- ße zer-|
 B2 z B B2 BB | B2 BB B2 BB | .B.B z2 z2 | z d | c c2 B c c2 B/B/ | BB/B/ cc B2 z | c/c/ | %26
w: schlägt und Wa- gen mit|Feu- er, mit Feu- er ver-|bren- net.|Seid|stil- le, seid stil- le und er-|ken- net dass ich Gott bin,|und er-|
 dd/d/ d^A Bc B2 | B2 F2 !fermata!F2 z2 | z GGG ee z e | d2 dd d2 z c | c2 ^BB c2 z2 | %31
w: ken- net, dass ich Gott bin, dass ich,|ich Gott bin.|Kommt her und schau- et die|Wer- ke des Herrn, die|Wer- ke des Herrn!|
 cc^B^A G3 F | Ec^B^A GGGc | ^B2 z c c2 ce | f2 z2 d2 dd | c2 z c cBAB | cBAB cBAc | BB z B B2 Bd | %38
w: Der den Krie- gen steu- *|ert in al- ler Welt, in al- ler|Welt, der Bo- gen zer-|bricht, Spie- ße zer-|schlägt und Wa- * gen mit|Feu- * er, mit Feu- * er ver-|bren- net, der Bo- gen zer-|
 e2 z2 c2 cc | B2 z B BAGA | BAGA BAGB | A2 cc f2 FF | B2 z2 g2 GG | c2 c2 B2 Be | e2 cc .B.B z | %45
w: bricht, Spie- ße zer-|schlägt und Wa- * gen mit|Feu- * er, mit Feu- * er ver-|bren- net, der Bo- gen zer-|bricht, Spie- ße zer-|schlägt und Wa- gen mit|Feu- er ver- bren- net.|
 d | c c2 B c c2 B/B/ | BB/B/ cc B2 z B | B2 Bd e2 z2 | c2 cc B2 z | B | A A2 A A A2 G/G/ | %52
w: Seid|stil- le, seid stil- le und er-|ken- net, dass ich Gott bin, der|Bo- gen zer- bricht,|Spie- ße zer- schlägt,|seid|stil- le, seid stil- le und er-|
 AA/A/ AF G2 z B | BAGA BAGA | BAGB AA z c | cBAB cBAB | cBAc BB z | B | c c2 B B B2 B/B/ | %59
w: ken- net dass ich Gott bin, der|Wa- * gen mit Feu- * er, mit|Feu- * er ver- bren- net, der|Wa- * gen mit Feu- * er, mit|Feu- * er ver- bren- net.|Seid|stil- le, seid stil- le und er-|
 Ac/e/ ee e2 z |!f! e/e/ | ee/c/ AB B2 e2 | e2 BA G2 G2 | A2 A2 B4 |] %64
w: ken- net, dass ich Gott bin,|und er-|ken- net, dass ich Gott bin, dass|ich Gott * bin, dass|ich Gott bin.|
V:4
 E, | E,3 E, E,E, z E, | D,2 D,D, E,2 z G, | A,2 ^A,A, B,2 B,B, | C2 CC B, B,/>A,/ B,B, | %5
w: |||||
 A,A,/>G,/ A,A,/A,/ A,G, G,G,/G,/ | F,2 B,,B,, E,2 z2 || z4 B,A,G,F, | E,2 B,,2 z B,/A,/ G,E, | %9
w: ||der den Krie- gen|steu- ert in * al- ler|
 B,,2 z B, B,2 B,,B, | B,2 z2 ^A,2 A,A, | B,2 z B, ^A,G,F,G, | ^A,G,F,G, A,G,A,^B, | %13
w: Welt, * * * *||||
 CG, z C ^B,^A,G,A, | ^B,^A,G,A, B,A,G,B, | C2 C,C ^B,C DC/B,/ | C2 C,C ^B,C DC/B,/ | %17
w: |* * * * * * * ver-|bren- * * * * * * *||
 C3 =B, ^A,B, CB,/A,/ | B,2 B,,B, ^A,B, CB,/A,/ | B,2 B,,B, B,2 B,B, | B,2 B,,B, B,2 B,B, | %21
w: ||* net * * * *||
 .E,.B,, z2 z2 | z2 | z2 z B, ^A, A,2 B,/B,/ | E,E,/E,/ C,F, B,,2 z | z | %26
w: ||Seid stil- le und er-|ken- net dass ich Gott bin,||
 z3/2 B,,/ D,F, B,^A, G,2 | E,2 F,2 !fermata!B,,2 z2 | z G,G,G, G,G, z G, | ^^F,2 F,F, ^F,2 z E, | %30
w: dass ich Gott bin, dass ich,|ich Gott bin.|||
 D,2 G,G, C,2 z2 | z4 G,F,E,D, | C,2 G,,2 z G,/F,/ E,C, | G,2 z C C2 C,C | C2 z2 ^B,2 B,B, | %35
w: |Der den Krie- gen|steu- ert in * al- ler|Welt, * * * *||
 =B,2 z B, A,G,F,G, | A,G,F,G, A,G,F,^A, | B,B,, z B, B,2 B,,B, | B,2 z2 ^A,2 A,A, | %39
w: ||||
 =A,2 z A, G,F,E,F, | G,F,E,F, G,F,E,G, | A,2 CB, ^A,B, CB,/A,/ | B,2 DC ^B,C DC/B,/ | %43
w: |Feu- * er, mit Feu- * er ver-|bren- * * * * * * *||
 C=B, A,G,/A,/ B,A, G,F,/G,/ | A,2 A,^A, .B,.B,, z | z | z2 z B, ^A, A,2 B,/B,/ | %47
w: |* net, ver- bren- net.||Seid stil- le * *|
 E,E,/E,/ C,F, B,,2 z B, | B,2 B,,B, B,2 z2 | ^A,2 A,A, B,2 z | G, | F, F,2 E, D, D,2 E,/E,/ | %52
w: |||||
 E,E,/E,/ E,E, E,2 z G, | G,F,E,F, G,F,E,F, | G,F,E,G, A,A,, z A, | A,G,F,G, A,G,F,G, | %56
w: ||||
 A,G,F,^A, B,B,, z | G, | F, F,2 B,, E, E,2 =D,/D,/ | C,C,/C,/ CB, A,2 z |!f! G,/G,/ | %61
w: |||||
 A,A,/A,/ F,B, E,2 C,2 | A,,2 B,,2 E,2 E,2 | E,2 E,2 E,4 |] %64
w: |||

